X:2902
T:Polonäs i Dm efter Daniel Danielsson
B:Daniel Danielssons notbok, nr 20
B:http://www.smus.se/earkiv/fmk/browselarge.php?lang=sw&katalogid=MMD+47&bildnr=00008
O:Södra gården, Härjedalen
Z:Nils L
R:Slängpolska
M:3/4
L:1/16
K:Dm
D2E2 F2F2 E2D2 | D2F2 E2D2 C2A,2 | A2B2 c2B2 c2A2 | d2e2 c2BA B2A^G | A2A2 A,2CE A4 :: 
A2B2 c4 G4 | A2E2 F4 C4 | D2E2 F2F2 E2D2 | D2FD A,4 A,4 | 
D2^C2 D2C2 D2E2 | FGFE F2E2 F2G2 | ABAG A2F2 E2D2 | F2ED ^C2DE D4 :|
(:musicend:)
(:music:)
